assets/img/braze_icons/channel-sms.svg

<svg fill="none" height="24" viewBox="0 0 24 24" width="24" xmlns="http://www.w3.org/2000/svg"><g fill="#801ed7"><path clip-rule="evenodd" d="m13.1615 10h5.677c.5272-.00002.982-.00003 1.3565.0306.3954.0323.7886.1036 1.167.2964.5645.2876 1.0234.7465 1.311 1.311.1928.3784.2641.7716.2964 1.167.0306.3745.0306.8293.0306 1.3565v2.7848c0 .4386 0 .8171-.0213 1.1304-.0226.3298-.0721.6597-.2071.9856-.3044.7351-.8885 1.3191-1.6235 1.6236-.326.135-.6559.1845-.9857.207-.0523.0036-.1065.0066-.1624.0091v1.098c0 .3723-.2068.7138-.5368.8862-.3299.1725-.7284.1474-1.034-.0651l-2.1764-1.5132c-.3353-.233-.4031-.2755-.4672-.3045-.0738-.0335-.1515-.0579-.2313-.0726-.0692-.0127-.1491-.0165-.5574-.0165h-1.8354c-.5272 0-.982 0-1.3565-.0306-.3954-.0323-.7886-.1036-1.167-.2964-.5645-.2876-1.0234-.7466-1.31102-1.311-.19279-.3784-.26411-.7716-.29641-1.167-.0306-.3746-.03059-.8293-.03057-1.3565v-2.5913c-.00002-.5272-.00003-.982.03057-1.3565.0323-.3954.10362-.7886.29641-1.167.28762-.5645.74652-1.0234 1.31102-1.311.3784-.1928.7716-.2641 1.167-.2964.3745-.03063.8293-.03062 1.3565-.0306z" fill-rule="evenodd"/><path d="m14.2413 1h-7.48257c-.80496-.000012-1.46933-.000022-2.01053.04419-.56209.04593-1.0788.14449-1.56413.39179-.75265.38349-1.36457.99541-1.74807 1.74806-.24729.48533-.34585 1.00204-.39178 1.56414-.04421.54119-.0442 1.20555-.04419 2.01052l-.00002 4.7621c-.000129.4417-.000228.7689.04225 1.0589.25614 1.7486 1.62943 3.1219 3.37804 3.3781.07149.0104.11606.0373.13529.0533l-.00001 1.5778c-.00004.2726-.00008.54.01894.755.0169.191.06115.5867.34228.9146.31336.3655.78315.5584 1.26298.5186.43043-.0358.73994-.2862.88618-.4102.04166-.0354.08481-.0739.12912-.115-.09257-.3607-.1346-.6952-.15784-.9797-.03747-.4586-.03734-.9884-.03723-1.477v-2.676c-.00011-.4887-.00024-1.0185.03723-1.4771.0424-.519.14736-1.2047.50775-1.912.47937-.94084 1.24427-1.70574 2.18508-2.18511.70733-.36039 1.39303-.46535 1.91203-.50775.4586-.03747.9884-.03734 1.477-.03723h5.7618c.3657-.00008.7544-.00018 1.1191.01549v-1.25682c0-.80496.0001-1.46931-.0442-2.0105-.0459-.5621-.1445-1.07881-.3917-1.56414-.3835-.75265-.9955-1.36457-1.7481-1.74806-.4853-.2473-1.002-.34586-1.5641-.39179-.5412-.044212-1.2056-.044202-2.0106-.04419z"/></g></svg>

<svg width="24" height="24" viewBox="0 0 24 24" fill="none" xmlns="http://www.w3.org/2000/svg">
<path fill-rule="evenodd" clip-rule="evenodd" d="M13.1615 10H18.8385C19.3657 9.99998 19.8205 9.99997 20.195 10.0306C20.5904 10.0629 20.9836 10.1342 21.362 10.327C21.9265 10.6146 22.3854 11.0735 22.673 11.638C22.8658 12.0164 22.9371 12.4096 22.9694 12.805C23 13.1795 23 13.6343 23 14.1615V16.9463C23 17.3849 23 17.7634 22.9787 18.0767C22.9561 18.4065 22.9066 18.7364 22.7716 19.0623C22.4672 19.7974 21.8831 20.3814 21.1481 20.6859C20.8221 20.8209 20.4922 20.8704 20.1624 20.8929C20.1101 20.8965 20.0559 20.8995 20 20.902V22C20 22.3723 19.7932 22.7138 19.4632 22.8862C19.1333 23.0587 18.7348 23.0336 18.4292 22.8211L16.2528 21.3079C15.9175 21.0749 15.8497 21.0324 15.7856 21.0034C15.7118 20.9699 15.6341 20.9455 15.5543 20.9308C15.4851 20.9181 15.4052 20.9143 14.9969 20.9143H13.1615C12.6343 20.9143 12.1795 20.9143 11.805 20.8837C11.4096 20.8514 11.0164 20.7801 10.638 20.5873C10.0735 20.2997 9.6146 19.8407 9.32698 19.2763C9.13419 18.8979 9.06287 18.5047 9.03057 18.1093C8.99997 17.7347 8.99998 17.28 9 16.7528V14.1615C8.99998 13.6343 8.99997 13.1795 9.03057 12.805C9.06287 12.4096 9.13419 12.0164 9.32698 11.638C9.6146 11.0735 10.0735 10.6146 10.638 10.327C11.0164 10.1342 11.4096 10.0629 11.805 10.0306C12.1795 9.99997 12.6343 9.99998 13.1615 10Z" fill="#801ED7"/>
<path d="M14.2413 1H6.75873C5.95377 0.999988 5.2894 0.999978 4.7482 1.04419C4.18611 1.09012 3.6694 1.18868 3.18407 1.43598C2.43142 1.81947 1.8195 2.43139 1.436 3.18404C1.18871 3.66937 1.09015 4.18608 1.04422 4.74818C1.00001 5.28937 1.00002 5.95373 1.00003 6.7587L1.00001 11.5208C0.999881 11.9625 0.999782 12.2897 1.04226 12.5797C1.2984 14.3283 2.67169 15.7016 4.4203 15.9578C4.49179 15.9682 4.53636 15.9951 4.55559 16.0111L4.55558 17.5889C4.55554 17.8615 4.5555 18.1289 4.57452 18.3439C4.59142 18.5349 4.63567 18.9306 4.9168 19.2585C5.23016 19.624 5.69995 19.8169 6.17978 19.7771C6.61021 19.7413 6.91972 19.4909 7.06596 19.3669C7.10762 19.3315 7.15077 19.293 7.19508 19.2519C7.10251 18.8912 7.06048 18.5567 7.03724 18.2722C6.99977 17.8136 6.9999 17.2838 7.00001 16.7952V14.1192C6.9999 13.6305 6.99977 13.1007 7.03724 12.6421C7.07964 12.1231 7.1846 11.4374 7.54499 10.7301C8.02436 9.78926 8.78926 9.02436 9.73007 8.54499C10.4374 8.1846 11.1231 8.07964 11.6421 8.03724C12.1007 7.99977 12.6305 7.9999 13.1191 8.00001H18.8809C19.2466 7.99993 19.6353 7.99983 20 8.0155V6.75868C20 5.95372 20.0001 5.28937 19.9558 4.74818C19.9099 4.18608 19.8113 3.66937 19.5641 3.18404C19.1806 2.43139 18.5686 1.81947 17.816 1.43598C17.3307 1.18868 16.814 1.09012 16.2519 1.04419C15.7107 0.999978 15.0463 0.999988 14.2413 1Z" fill="#801ED7"/>
</svg>
